styles/2/Numix/256/places/default-folder-ubuntu.svg

<?xml version="1.0" encoding="UTF-8" standalone="no"?>
<svg
   xmlns:dc="http://purl.org/dc/elements/1.1/"
   xmlns:cc="http://creativecommons.org/ns#"
   xmlns:rdf="http://www.w3.org/1999/02/22-rdf-syntax-ns#"
   xmlns:svg="http://www.w3.org/2000/svg"
   xmlns="http://www.w3.org/2000/svg"
   xmlns:sodipodi="http://sodipodi.sourceforge.net/DTD/sodipodi-0.dtd"
   xmlns:inkscape="http://www.inkscape.org/namespaces/inkscape"
   width="256px"
   height="256px"
   viewBox="0 0 256 256"
   version="1.1"
   id="svg8082"
   inkscape:version="0.91 r"
   sodipodi:docname="default-folder-ubuntu.svg">
  <metadata
     id="metadata8095">
    <rdf:RDF>
      <cc:Work
         rdf:about="">
        <dc:format>image/svg+xml</dc:format>
        <dc:type
           rdf:resource="http://purl.org/dc/dcmitype/StillImage" />
      </cc:Work>
    </rdf:RDF>
  </metadata>
  <defs
     id="defs8093" />
  <sodipodi:namedview
     pagecolor="#ffffff"
     bordercolor="#666666"
     borderopacity="1"
     objecttolerance="10"
     gridtolerance="10"
     guidetolerance="10"
     inkscape:pageopacity="0"
     inkscape:pageshadow="2"
     inkscape:window-width="640"
     inkscape:window-height="480"
     id="namedview8091" />
  <g
     id="surface1">
    <path
       style=" stroke:none;fill-rule:nonzero;fill:rgb(91.372549%,69.019608%,50.196078%);fill-opacity:1;"
       d="M 36 32 C 30.140625 32 24 38.046875 24 44 L 24 48 L 12 48 C 6.117188 48 0 53.984375 0 60 L 0 212 C 0 220 4 224 12 224 L 244 224 C 250.273438 224 256 218.570312 256 212 L 256 80 C 256 73.976562 250.179688 68 244 68 L 232 68 L 232 44 C 232 38.15625 226.1875 32 220 32 Z M 36 32 "
       id="path8085" />
    <path
       style=" stroke:none;fill-rule:nonzero;fill:rgb(0%,0%,0%);fill-opacity:0.321569;"
       d="M 36 32 C 30.140625 32 24 38.046875 24 44 L 24 48 L 12 48 C 6.117188 48 0 53.984375 0 60 L 0 212 C 0 220 4 224 12 224 L 244 224 C 250.273438 224 256 218.570312 256 212 L 256 80 C 256 73.976562 250.179688 68 244 68 L 232 68 L 232 44 C 232 38.15625 226.1875 32 220 32 Z M 12 56 L 148 56 C 150.359375 56 152 58.0625 152 60 L 152 76 L 244 76 C 246.023438 76 248 78.03125 248 80 L 248 212 C 248 214.085938 246.085938 216 244 216 L 12 216 C 10.140625 216 8 214.414062 8 212 L 8 60 C 8 58.03125 10.0625 56 12 56 Z M 12 56 "
       id="path8087" />
    <path
       style=" stroke:none;fill-rule:nonzero;fill:rgb(0%,0%,0%);fill-opacity:0.321569;"
       d="M 172 88 C 165.375 88 160 93.375 160 100 C 160 106.625 165.375 112 172 112 C 178.625 112 184 106.625 184 100 C 184 93.375 178.625 88 172 88 Z M 128 96 C 118.828125 96 110.28125 98.53125 103 103 L 114.875 114.875 C 118.882812 113.070312 123.320312 112 128 112 C 144.3125 112 157.773438 124.21875 159.75 140 L 175.75 140 C 175.101562 132.320312 172.703125 125.101562 168.875 118.875 C 167.375 119.554688 165.757812 120 164 120 C 157.375 120 152 114.625 152 108 C 152 106.242188 152.445312 104.625 153.125 103.125 C 145.820312 98.625 137.210938 96 128 96 Z M 96.625 107.875 C 89.109375 114.429688 83.5625 123.203125 81.25 133.25 C 85.234375 135.203125 88 139.265625 88 144 C 88 148.734375 85.234375 152.796875 81.25 154.75 C 83.742188 165.578125 89.820312 175.078125 98.25 181.75 L 109.75 170.25 C 101.445312 164.46875 96 154.882812 96 144 C 96 133.960938 100.640625 124.992188 107.875 119.125 Z M 64 132 C 57.375 132 52 137.375 52 144 C 52 150.625 57.375 156 64 156 C 70.625 156 76 150.625 76 144 C 76 137.375 70.625 132 64 132 Z M 159.75 148 C 157.773438 163.78125 144.3125 176 128 176 C 124.21875 176 120.617188 175.203125 117.25 174 L 105.125 186.125 C 111.929688 189.84375 119.695312 192 128 192 C 134.054688 192 139.789062 190.921875 145.125 188.875 C 144.445312 187.375 144 185.757812 144 184 C 144 177.375 149.375 172 156 172 C 159.21875 172 162.09375 173.3125 164.25 175.375 C 170.734375 167.890625 174.890625 158.453125 175.75 148 Z M 164 180 C 157.375 180 152 185.375 152 192 C 152 198.625 157.375 204 164 204 C 170.625 204 176 198.625 176 192 C 176 185.375 170.625 180 164 180 Z M 164 180 "
       id="path8089" />
  </g>
</svg>

<svg xmlns="http://www.w3.org/2000/svg" viewBox="0 0 256 256">
 <g>
  <path d="m 36 32 c -5.859 0 -12 6.05 -12 12 l 0 4 l -12 0 c -5.883 0 -12 5.984 -12 12 l 0 152 c 0 8 4 12 12 12 l 232 0 c 6.273 0 12 -5.43 12 -12 l 0 -132 c 0 -6.02 -5.82 -12 -12 -12 l -12 0 l 0 -24 c 0 -5.844 -5.813 -12 -12 -12 m -184 0" style="fill:#e8b07f;fill-opacity:1;stroke:none;fill-rule:nonzero"/>
  <path d="m 36 32 c -5.859 0 -12 6.05 -12 12 l 0 4 l -12 0 c -5.883 0 -12 5.984 -12 12 l 0 152 c 0 8 4 12 12 12 l 232 0 c 6.273 0 12 -5.43 12 -12 l 0 -132 c 0 -6.02 -5.82 -12 -12 -12 l -12 0 l 0 -24 c 0 -5.844 -5.813 -12 -12 -12 m -208 24 l 136 0 c 2.359 0 4 2.063 4 4 l 0 16 l 92 0 c 2.023 0 4 2.031 4 4 l 0 132 c 0 2.086 -1.914 4 -4 4 l -232 0 c -1.859 0 -4 -1.586 -4 -4 l 0 -152 c 0 -1.969 2.063 -4 4 -4 m 0 0" style="fill:#000;fill-opacity:0.322;stroke:none;fill-rule:nonzero"/>
  <path d="m 172 88 c -6.625 0 -12 5.375 -12 12 c 0 6.625 5.375 12 12 12 c 6.625 0 12 -5.375 12 -12 c 0 -6.625 -5.375 -12 -12 -12 m -44 8 c -9.172 0 -17.719 2.531 -25 7 l 11.875 11.875 c 4.01 -1.805 8.445 -2.875 13.13 -2.875 c 16.313 0 29.773 12.219 31.75 28 l 16 0 c -0.648 -7.68 -3.047 -14.898 -6.875 -21.12 c -1.5 0.68 -3.117 1.125 -4.875 1.125 c -6.625 0 -12 -5.375 -12 -12 c 0 -1.758 0.445 -3.375 1.125 -4.875 c -7.305 -4.5 -15.914 -7.125 -25.12 -7.125 m -31.375 11.875 c -7.516 6.555 -13.06 15.328 -15.375 25.375 c 3.984 1.953 6.75 6.02 6.75 10.75 c 0 4.734 -2.766 8.797 -6.75 10.75 c 2.492 10.828 8.57 20.328 17 27 l 11.5 -11.5 c -8.305 -5.781 -13.75 -15.367 -13.75 -26.25 c 0 -10.04 4.641 -19.01 11.875 -24.875 m -43.875 12.875 c -6.625 0 -12 5.375 -12 12 c 0 6.625 5.375 12 12 12 c 6.625 0 12 -5.375 12 -12 c 0 -6.625 -5.375 -12 -12 -12 m 95.75 16 c -1.977 15.781 -15.438 28 -31.75 28 c -3.781 0 -7.383 -0.797 -10.75 -2 l -12.12 12.13 c 6.805 3.719 14.57 5.875 22.875 5.875 c 6.05 0 11.789 -1.078 17.13 -3.125 c -0.68 -1.5 -1.125 -3.117 -1.125 -4.875 c 0 -6.625 5.375 -12 12 -12 c 3.219 0 6.094 1.313 8.25 3.375 c 6.484 -7.484 10.641 -16.922 11.5 -27.375 m -11.75 32 c -6.625 0 -12 5.375 -12 12 c 0 6.625 5.375 12 12 12 c 6.625 0 12 -5.375 12 -12 c 0 -6.625 -5.375 -12 -12 -12 m 0 0" style="fill:#000;fill-opacity:0.322;stroke:none;fill-rule:nonzero"/>
 </g>
</svg>
